X:1
T:Title
%%score { ( 1 4 ) | ( 2 3 ) }
L:1/8
Q:1/4=84
M:4/4
K:G
V:1 treble nm="Grand Piano"
V:4 treble 
V:2 bass 
V:3 bass 
V:1
 [B,DG]2 [CDF]>[CDF] [B,DG]2 [B,D][DG] | [DGB]2 [^CG_B]>[CGB] [DG=B]2 [B,DG]2 | %2
w: Charles~S.~Brown * * * * *||
 [Gd]2 [G^c]>[Gc] [Gd]2 [CG=c][^CGB] | [DGB]2 [CFA][B,=F^G] [C^FA]4 | %4
w: ||
 [B,DG]2 [CDF]>[CDF] [B,DG]2 [B,D][DG] | [DGB]2 [^CG_B]>[CGB] [DG=B]2 [B,DG]2 | %6
w: ||
 [Gd]2 [Ge]>[G^d] [G=d]2 [B,G][EGc] | [DGB]2 [CEA]>[CFA] [B,G]4 | %8
w: ||
 .[DFc]2 [B,=F^G]>[A,^FA] [DFB]2 [CFA][B,=G] | [A,DF]2 [B,DG]>[CE] [CE]2 [B,D]2 | %10
w: ||
 .[DFc]2 [B,=F^G]>[A,^FA] [DFB]2 [CFA][B,=G] |[M:9/8] z3 z A2- A3 |[M:4/4] d2 d>d dB z C | %13
w: |||
 d2 d>d dB z C | [B,DB]2 [B,DG][B,EG] [B,G]2 [DG][EGc] | [DGB]2 [CEA]>[CFA] [B,G]4 |] %16
w: |||
V:2
 G,2 A,>A, G,B,,D,B,, | G,,2 G,,>G,, G,,B,,D,E, | [D,B,]2 [E,_B,]>[E,B,] [D,=B,]2 E,E, | %3
 D,2 D,D, .D,2 E,F, | G,2 A,>A, G,B,,D,B,, | G,,2 G,,>G,, G,,B,,D,E, | %6
 [D,B,]2 [^C,_B,]>[C,B,] [D,=B,]2 D,=C, | D,2 D,>D, G,4 | z A, D,>D, D,2 D,D, | %9
 D,2 D,>C, C,E, G,2 | z A, D,>D, D,2 D,D, |[M:9/8] D,2 D,- D,/D,/ F,2- F,3 | %12
[M:4/4] [G,B,D]2 [F,CE]>[K:treble][A,CF] [G,B,G][G,D]D-[A,D] | %13
 [G,B,D]2 [F,CE]>[K:treble][A,CF] [G,B,G][G,D]D-[A,D] | G,2 F,E, D,C,B,,A,, | D,2 D,>D, G,,4 |] %16
V:3
 x8 | x8 | x8 | z4 z D,3 | x8 | x8 | x8 | x8 | D,2 z2 z4 | x8 | D,2 z2 z4 |[M:9/8] x9 | %12
[M:4/4] z4[K:treble] z2 .[G,B,]2 | z4[K:treble] z2 .[G,B,]2 | x8 | x8 |] %16
V:4
 x8 | x8 | x8 | x8 | x8 | x8 | x8 | x8 | x8 | x8 | x8 | %11
[M:9/8] [A,DF]2 [B,DG]- [B,DG]/[B,EG]/ [A,D]2 D3 |[M:4/4] z4 z2 G2 | z4 z2 G2 | x8 | x8 |] %16

